svgs/thin/conveyor-belt-empty.svg

<svg xmlns="http://www.w3.org/2000/svg" viewBox="0 0 640 512"><!-- Font Awesome Pro 6.0.0-alpha2 by @fontawesome - https://fontawesome.com License - https://fontawesome.com/license (Commercial License) --><path d="M528 368C501.375 368 480 389.375 480 416S501.375 464 528 464S576 442.625 576 416S554.625 368 528 368ZM528 448C510.355 448 496 433.645 496 416S510.355 384 528 384S560 398.355 560 416S545.645 448 528 448ZM320 368C293.375 368 272 389.375 272 416S293.375 464 320 464S368 442.625 368 416S346.625 368 320 368ZM320 448C302.355 448 288 433.645 288 416S302.355 384 320 384S352 398.355 352 416S337.645 448 320 448ZM544 320H96C42.98 320 0 362.98 0 416S42.98 512 96 512H544C597.02 512 640 469.02 640 416S597.02 320 544 320ZM544 496H96C51.889 496 16 460.111 16 416S51.889 336 96 336H544C588.111 336 624 371.889 624 416S588.111 496 544 496ZM112 368C85.375 368 64 389.375 64 416S85.375 464 112 464S160 442.625 160 416S138.625 368 112 368ZM112 448C94.355 448 80 433.645 80 416S94.355 384 112 384S144 398.355 144 416S129.645 448 112 448Z"/></svg>

<svg xmlns="http://www.w3.org/2000/svg" viewBox="0 0 640 512"><!--! Font Awesome Pro 6.3.0 by @fontawesome - https://fontawesome.com License - https://fontawesome.com/license (Commercial License) Copyright 2023 Fonticons, Inc. --><path d="M528 368c-26.62 0-48 21.38-48 48s21.38 48 48 48S576 442.6 576 416S554.6 368 528 368zM528 448c-17.64 0-32-14.36-32-32s14.36-32 32-32s32 14.36 32 32S545.6 448 528 448zM320 368c-26.62 0-48 21.38-48 48s21.38 48 48 48s48-21.38 48-48S346.6 368 320 368zM320 448c-17.64 0-32-14.36-32-32s14.36-32 32-32s32 14.36 32 32S337.6 448 320 448zM544 320H96c-53.02 0-96 42.98-96 96s42.98 96 96 96h448c53.02 0 96-42.98 96-96S597 320 544 320zM544 496H96c-44.11 0-80-35.89-80-80s35.89-80 80-80h448c44.11 0 80 35.89 80 80S588.1 496 544 496zM112 368C85.38 368 64 389.4 64 416s21.38 48 48 48S160 442.6 160 416S138.6 368 112 368zM112 448c-17.64 0-32-14.36-32-32s14.36-32 32-32s32 14.36 32 32S129.6 448 112 448z"/></svg>
